app/assets/images/remix_icon/user/criminal-fill.svg

<svg viewBox="0 0 24 24" xmlns="http://www.w3.org/2000/svg"><path d="M12 2C16.9706 2 21 6.02944 21 11C21 13.2031 20.2084 15.2213 18.8941 16.7858C20.1491 17.6156 20.9275 18.6754 20.9952 19.835L21 20L12 22L3 20L3.00481 19.835C3.0725 18.6755 3.85076 17.6158 5.10554 16.7859C3.79194 15.2222 3 13.2036 3 11C3 6.02944 7.02944 2 12 2ZM12 13C10.6193 13 9.5 13.6716 9.5 14.5C9.5 15.3284 10.6193 16 12 16C13.3807 16 14.5 15.3284 14.5 14.5C14.5 13.6716 13.3807 13 12 13ZM9 8C7.89543 8 7 8.67157 7 9.5C7 10.3284 7.89543 11 9 11C10.1046 11 11 10.3284 11 9.5C11 8.67157 10.1046 8 9 8ZM15 8C13.8954 8 13 8.67157 13 9.5C13 10.3284 13.8954 11 15 11C16.1046 11 17 10.3284 17 9.5C17 8.67157 16.1046 8 15 8Z"/></svg>

<svg xmlns="http://www.w3.org/2000/svg" viewBox="0 0 24 24">
    <g>
        <path fill="none" d="M0 0h24v24H0z"/>
        <path d="M12 2a9 9 0 0 1 6.894 14.786c1.255.83 2.033 1.89 2.101 3.049L21 20l-9 2-9-2 .005-.165c.067-1.16.846-2.22 2.1-3.05A8.965 8.965 0 0 1 3 11a9 9 0 0 1 9-9zm0 11c-1.38 0-2.5.672-2.5 1.5S10.62 16 12 16s2.5-.672 2.5-1.5S13.38 13 12 13zM9 8c-1.105 0-2 .672-2 1.5S7.895 11 9 11s2-.672 2-1.5S10.105 8 9 8zm6 0c-1.105 0-2 .672-2 1.5s.895 1.5 2 1.5 2-.672 2-1.5S16.105 8 15 8z"/>
    </g>
</svg>
